src/assets/floors/BusinessSchoolLevel4.svg

<svg width="847" height="501" viewBox="0 0 847 501" fill="none" xmlns="http://www.w3.org/2000/svg">
<g id="BusinessSchoolLevel4">
<g id="level 4">
<path id="Vector" opacity="0.55" d="M0.292358 487.305H133.827V468.111H249.584V489.284H657.37V500.167H846.851V292.295H772.353V204.635H783.658V0.166992H658.143V11.1493H188.076V32.3223H134.063V10.0609H0.817944L0.292358 487.305Z" fill="#75378F"/>
</g>
<g id="401a">
<path id="Vector_2" d="M6.43555 482.744V452.748H34.7131V483.479L6.43555 482.744Z" fill="#75378F"/>
</g>
<g id="401b">
<path id="Vector_3" d="M7.15295 423.916V449.565H33.8761V424.222L7.15295 423.916Z" fill="#75378F"/>
</g>
<g id="401c">
<path id="Vector_4" d="M6.67456 391.104V420.855H33.9358V391.41L6.67456 391.104Z" fill="#75378F"/>
</g>
<g id="401d">
<path id="Vector_5" d="M33.8761 387.186V359.394H4.94092V387.798L33.8761 387.186Z" fill="#75378F"/>
</g>
<g id="401e">
<path id="Vector_6" d="M6.55505 355.66V330.011H34.1152V356.027L6.55505 355.66Z" fill="#75378F"/>
</g>
<g id="401f">
<path id="Vector_7" d="M6.79419 298.668V327.807H34.6532V298.913L6.79419 298.668Z" fill="#75378F"/>
</g>
<g id="401g">
<path id="Vector_8" d="M6.78806 295.402H34.4401V265.55H6.66956L6.78806 295.402Z" fill="#75378F"/>
</g>
<g id="401h">
<path id="Vector_9" d="M6.51155 262.274H34.4401V236.386H6.47205L6.51155 262.274Z" fill="#75378F"/>
</g>
<g id="401i">
<path id="Vector_10" d="M6.39307 233.959H34.0056V204.674H6.51157L6.39307 233.959Z" fill="#75378F"/>
</g>
<g id="401j">
<path id="Vector_11" d="M6.59058 172.533V201.211H33.9661V172.25L6.59058 172.533Z" fill="#75378F"/>
</g>
<g id="401k">
<path id="Vector_12" d="M6.43262 169.014V142.317H34.2821V169.297L6.43262 169.014Z" fill="#75378F"/>
</g>
<g id="401l">
<path id="Vector_13" d="M6.70911 110.888V140.739H34.1636V110.726L6.70911 110.888Z" fill="#75378F"/>
</g>
<g id="401m">
<path id="Vector_14" d="M6.70911 107.652V78.6094H34.2821V107.571L6.70911 107.652Z" fill="#75378F"/>
</g>
<g id="401">
<path id="Vector_15" d="M36.4152 78.9329H63.0797V110.281H82.1991V157.566H128.299V341.552H82.0015V483.662H36.3757L36.4152 78.9329Z" fill="#75378F"/>
</g>
<g id="402">
<path id="Vector_16" d="M84.8083 344.806H94.8795V376.574H84.7714L84.8083 344.806Z" fill="#75378F"/>
</g>
<g id="403">
<path id="Vector_17" d="M119.228 344.806H126.827V379.596H118.49L119.228 344.806Z" fill="#75378F"/>
</g>
<g id="404">
<path id="Vector_18" d="M252.796 295.758H297.988V390.574H252.612L252.796 295.758Z" fill="#75378F"/>
</g>
<g id="405">
<path id="Vector_19" d="M272.57 411.211H314.663V484.948H272.017L272.57 411.211Z" fill="#75378F"/>
</g>
<g id="405a">
<path id="Vector_20" d="M253.165 410.645H269.988V485.024H252.796L253.165 410.645Z" fill="#75378F"/>
</g>
<g id="406">
<path id="Vector_21" d="M378.748 296.683V315.344H314.963V296.268L378.748 296.683Z" fill="#75378F"/>
</g>
<g id="407">
<path id="Vector_22" d="M315 370.118H331.749V390.403H315.074L315 370.118Z" fill="#75378F"/>
</g>
<g id="407a">
<path id="Vector_23" d="M315.221 368.305H331.49V350.74H346.8V317.347H315.258L315.221 368.305Z" fill="#75378F"/>
</g>
<g id="408">
<path id="Vector_24" d="M333.224 352.666H346.247V390.592H333.187L333.224 352.666Z" fill="#75378F"/>
</g>
<g id="408b">
<path id="Vector_25" d="M353.441 317.954H376.682V363.284H347.243V353.123H352.998L353.441 317.954Z" fill="#75378F"/>
</g>
<g id="411">
<path id="Vector_26" d="M365.725 383.532H377.309V392.144H365.799L365.725 383.532Z" fill="#75378F"/>
</g>
<g id="410">
<path id="Vector_27" d="M363.644 383.562H347.916V390.587H363.794L363.644 383.562Z" fill="#75378F"/>
</g>
<g id="408a">
<path id="Vector_28" d="M347.975 382.152H357.472V365.034H347.826L347.975 382.152Z" fill="#75378F"/>
</g>
<g id="412">
<path id="Vector_29" d="M381.57 296.866V390.015H503.94V296.345L381.57 296.866Z" fill="#75378F"/>
</g>
<g id="409">
<path id="Vector_30" d="M317.088 411.399V484.041C317.088 484.041 379.232 483.854 379.282 484.041C379.332 484.228 379.282 411.031 379.282 411.031L317.088 411.399Z" fill="#75378F"/>
</g>
<g id="413">
<path id="Vector_31" d="M381.246 411.43V483.734H470.942V411.737L381.246 411.43Z" fill="#75378F"/>
</g>
<g id="414">
<path id="Vector_32" d="M520.141 411.583V479.501H627.303V411.369L520.141 411.583Z" fill="#75378F"/>
</g>
<g id="415">
<path id="Vector_33" d="M519.854 19.616H626.512V86.6001H519.657L519.854 19.616Z" fill="#75378F"/>
</g>
<g id="416">
<path id="Vector_34" d="M381.117 108.516V202.318H503.932V109.082L381.117 108.516Z" fill="#75378F"/>
</g>
<g id="417">
<path id="Vector_35" d="M470.719 17.2925H381.126V88.5238H470.008L470.719 17.2925Z" fill="#75378F"/>
</g>
<g id="418">
<path id="Vector_36" d="M347.984 17.8591H379.23V87.8769H348.063L347.984 17.8591Z" fill="#75378F"/>
</g>
<g id="419">
<path id="Vector_37" d="M346.838 107.619H356.911V131.443H346.798L346.838 107.619Z" fill="#75378F"/>
</g>
<g id="419a">
<path id="Vector_38" d="M359.202 108.589V130.756H378.085V108.306L359.202 108.589Z" fill="#75378F"/>
</g>
<g id="419b">
<path id="Vector_39" d="M346.601 133.142C346.601 133.749 346.601 181.519 346.601 181.519H376.426V133.587L346.601 133.142Z" fill="#75378F"/>
</g>
<g id="420">
<path id="Vector_40" d="M333.802 107.979V117.323H344.547V107.938L333.802 107.979Z" fill="#75378F"/>
</g>
<g id="421">
<path id="Vector_41" d="M315.67 119.385H331.432V107.857H315.552L315.67 119.385Z" fill="#75378F"/>
</g>
<g id="422">
<path id="Vector_42" d="M346.166 76.9138V88.4418H316.816V76.5093L346.166 76.9138Z" fill="#75378F"/>
</g>
<g id="423">
<path id="Vector_43" d="M316.223 121.368V131.318H345.218V121.165L316.223 121.368Z" fill="#75378F"/>
</g>
<g id="424">
<path id="Vector_44" d="M375.675 183.862V200.082H318.119V183.012L375.675 183.862Z" fill="#75378F"/>
</g>
<g id="423b">
<path id="Vector_45" d="M316.697 134.271H343.52V145.718H332.261V148.145H340.399V181.111H317.25L316.697 134.271Z" fill="#75378F"/>
</g>
<g id="425">
<path id="Vector_46" d="M191.532 108.95V202.873H297.756V109.112L191.532 108.95Z" fill="#75378F"/>
</g>
<g id="426">
<path id="Vector_47" d="M345.633 18.73H285.628V73.9029H346.068L345.633 18.73Z" fill="#75378F"/>
</g>
<g id="426a">
<path id="Vector_48" d="M285.984 77.4221H315.334V87.7367H285.668L285.984 77.4221Z" fill="#75378F"/>
</g>
<g id="427">
<path id="Vector_49" d="M283.258 18.2849H237.158V61.4848H283.377L283.258 18.2849Z" fill="#75378F"/>
</g>
<g id="428">
<path id="Vector_50" d="M234.512 18.1638H190.505V88.667H234.749L234.512 18.1638Z" fill="#75378F"/>
</g>
<g id="429">
<path id="Vector_51" d="M118.607 107.557V114.554H129.984V107.314L118.607 107.557Z" fill="#75378F"/>
</g>
<g id="430">
<path id="Vector_52" d="M96.6831 108.811V121.835H83.0941V109.255L96.6831 108.811Z" fill="#75378F"/>
</g>
<g id="431">
<path id="Vector_53" d="M4.12793 49.1884C4.28594 49.876 4.12793 75.5209 4.12793 75.5209H81.9881V48.6221L4.12793 49.1884Z" fill="#75378F"/>
</g>
<g id="431a">
<path id="Vector_54" d="M3.49595 46.5667H48.4502V14.2881H3.37744L3.49595 46.5667Z" fill="#75378F"/>
</g>
<g id="431b">
<path id="Vector_55" d="M50.7018 15.5173H82.4226V46.3802H50.8993L50.7018 15.5173Z" fill="#75378F"/>
</g>
<g id="elevator A level 4">
<path id="Vector_56" d="M97.7776 344.315V362.496H116.474V344.753L97.7776 344.315Z" fill="#2D6D9C"/>
</g>
<g id="stairs A level 4">
<path id="Vector_57" d="M85.798 410.379H129.31V483.41H85.7124L85.798 410.379Z" fill="#B03A4F"/>
</g>
<g id="stairs B level 4">
<path id="Vector_58" d="M473.516 410.949V482.796H499.187V410.818L473.516 410.949Z" fill="#B03A4F"/>
</g>
<g id="elevator B level 4">
<path id="Vector_59" d="M360.223 366.746V380.195H377.337V367.096L360.223 366.746Z" fill="#2D6D9C"/>
</g>
<g id="stairs C level 4">
<path id="Vector_60" d="M474.12 205.25H546.083V293.351H474.248L474.12 205.25Z" fill="#B03A4F"/>
</g>
<g id="stairs D level 4">
<path id="Vector_61" d="M472.246 17.5752H498.705V88.3891H472.213L472.246 17.5752Z" fill="#B03A4F"/>
</g>
<g id="stairs E level 4">
<path id="Vector_62" d="M86.6139 16.0764H128.381V89.6269H86.2008L86.6139 16.0764Z" fill="#B03A4F"/>
</g>
<g id="elevator C floor 4">
<path id="Vector_63" d="M99.6488 128.306H115.575V153.966H99.6947L99.6488 128.306Z" fill="#2D6D9C"/>
</g>
</g>
</svg>

<svg id="Layer_1" data-name="Layer 1" xmlns="http://www.w3.org/2000/svg" viewBox="0 0 632.04 481.03">
    <g id="Layer_4" data-name="Layer 4">
        <path class="background"
            d="M188.08,11.15V88.39h-54V10.06H.82L.29,487.3H133.83V411.43H249.58v77.85l382,1.81.77-199.26H584.46V214H632L632.33,13ZM297.76,289.47H248.31l-.92,100.93-112.07.19L135,108.81l50,.14v98H297.76Zm174,1.45L315,290l0-83.77,155.62.93Z"
            transform="translate(-0.29 -10.06)" />
    </g>
    <g id="Student_Union" data-name="Student Union">
        <polygon class="union"
            points="550.3 281.77 549.13 199.16 314.37 197.32 315.11 81.7 283.08 81.7 283.59 6.67 626.84 5.68 627.01 197.32 579.71 197.32 579.71 285.42 626.22 285.42 627.01 477.1 315.48 476.42 314.36 280.24 550.3 281.77" />
    </g>
    <g id="401a" data-name="401a">
        <path id="Vector_2" data-name="Vector 2" class="room" d="M6.44,482.74v-30H34.71v30.73Z"
            transform="translate(-0.29 -10.06)" />
    </g>
    <g id="401b" data-name="401b">
        <path id="Vector_3" data-name="Vector 3" class="room" d="M7.15,423.92v25.65H33.88V424.22Z"
            transform="translate(-0.29 -10.06)" />
    </g>
    <g id="401c" data-name="401c">
        <path id="Vector_4" data-name="Vector 4" class="room" d="M6.67,391.1v29.76H33.94V391.41Z"
            transform="translate(-0.29 -10.06)" />
    </g>
    <g id="401d" data-name="401d">
        <path id="Vector_5" data-name="Vector 5" class="room" d="M33.88,387.19v-27.8H4.94V387.8Z"
            transform="translate(-0.29 -10.06)" />
    </g>
    <g id="_401e" data-name="401e">
        <path id="Vector_6" data-name="Vector 6" class="room" d="M6.56,355.66V330H34.12v26Z"
            transform="translate(-0.29 -10.06)" />
    </g>
    <g id="_401f" data-name="401f">
        <path id="Vector_7" data-name="Vector 7" class="room" d="M6.79,298.67v29.14H34.65v-28.9Z"
            transform="translate(-0.29 -10.06)" />
    </g>
    <g id="_401g" data-name="401g">
        <path id="Vector_8" data-name="Vector 8" class="room" d="M6.79,295.4H34.44V265.55H6.67Z"
            transform="translate(-0.29 -10.06)" />
    </g>
    <g id="_401h" data-name="401h">
        <path id="Vector_9" data-name="Vector 9" class="room" d="M6.51,262.27H34.44V236.39h-28Z"
            transform="translate(-0.29 -10.06)" />
    </g>
    <g id="_401i" data-name="401i">
        <path id="Vector_10" data-name="Vector 10" class="room" d="M6.39,234H34V204.67H6.51Z"
            transform="translate(-0.29 -10.06)" />
    </g>
    <g id="_401j" data-name="401j">
        <path id="Vector_11" data-name="Vector 11" class="room" d="M6.59,172.53v28.68H34v-29Z"
            transform="translate(-0.29 -10.06)" />
    </g>
    <g id="_401k" data-name="401k">
        <path id="Vector_12" data-name="Vector 12" class="room" d="M6.43,169V142.32H34.28v27Z"
            transform="translate(-0.29 -10.06)" />
    </g>
    <g id="_401l" data-name="401l">
        <path id="Vector_13" data-name="Vector 13" class="room" d="M6.71,110.89v29.85H34.16v-30Z"
            transform="translate(-0.29 -10.06)" />
    </g>
    <g id="_401m" data-name="401m">
        <path id="Vector_14" data-name="Vector 14" class="room" d="M6.71,107.65v-29H34.28v29Z"
            transform="translate(-0.29 -10.06)" />
    </g>
    <g id="_401" data-name="401">
        <path id="Vector_15" data-name="Vector 15" class="room"
            d="M36.42,78.93H63.08v31.35H82.2v47.29h46.1v184H82V483.66H36.38Z"
            transform="translate(-0.29 -10.06)" />
    </g>
    <g id="_402" data-name="402">
        <path id="Vector_16" data-name="Vector 16" class="room"
            d="M84.81,344.81H94.88v31.76H84.77Z" transform="translate(-0.29 -10.06)" />
    </g>
    <g id="_403" data-name="403">
        <path id="Vector_17" data-name="Vector 17" class="room" d="M119.23,344.81h7.6V379.6h-8.34Z"
            transform="translate(-0.29 -10.06)" />
    </g>
    <g id="_404" data-name="404">
        <path id="Vector_18" data-name="Vector 18" class="room" d="M252.8,295.76H298v94.81H252.61Z"
            transform="translate(-0.29 -10.06)" />
    </g>
    <g id="_405" data-name="405">
        <path id="Vector_19" data-name="Vector 19" class="room" d="M272.57,411.21h42.09V485H272Z"
            transform="translate(-0.29 -10.06)" />
    </g>
    <g id="_405a" data-name="405a">
        <path id="Vector_20" data-name="Vector 20" class="room" d="M253.16,410.64H270V485H252.8Z"
            transform="translate(-0.29 -10.06)" />
    </g>
    <g id="_406" data-name="406">
        <path id="Vector_21" data-name="Vector 21" class="room"
            d="M378.75,296.68v18.66H315V296.27Z" transform="translate(-0.29 -10.06)" />
    </g>
    <g id="_407" data-name="407">
        <path id="Vector_22" data-name="Vector 22" class="room" d="M315,370.12h16.75V390.4H315.07Z"
            transform="translate(-0.29 -10.06)" />
    </g>
    <g id="Bathroom">
        <path id="Vector_23" data-name="Vector 23" class="bathroom"
            d="M315.22,368.3h16.27V350.74H346.8V317.35H315.26Z" transform="translate(-0.29 -10.06)" />
    </g>
    <g id="_408" data-name="408">
        <path id="Vector_24" data-name="Vector 24" class="room" d="M333.22,352.67h13v37.92H333.19Z"
            transform="translate(-0.29 -10.06)" />
    </g>
    <g id="Bathroom-2" data-name="Bathroom">
        <path id="Vector_25" data-name="Vector 25" class="bathroom"
            d="M353.44,318h23.24v45.33H347.24V353.12H353Z" transform="translate(-0.29 -10.06)" />
    </g>
    <g id="_411" data-name="411">
        <path id="Vector_26" data-name="Vector 26" class="room"
            d="M365.73,383.53h11.58v8.61H365.8Z" transform="translate(-0.29 -10.06)" />
    </g>
    <g id="_410" data-name="410">
        <path id="Vector_27" data-name="Vector 27" class="room" d="M363.64,383.56H347.92v7h15.87Z"
            transform="translate(-0.29 -10.06)" />
    </g>
    <g id="_408a" data-name="408a">
        <path id="Vector_28" data-name="Vector 28" class="room" d="M348,382.15h9.49V365h-9.64Z"
            transform="translate(-0.29 -10.06)" />
    </g>
    <g id="_412" data-name="412">
        <path id="Vector_29" data-name="Vector 29" class="room"
            d="M381.57,296.87V390H503.94V296.35Z" transform="translate(-0.29 -10.06)" />
    </g>
    <g id="_409" data-name="409">
        <path id="Vector_30" data-name="Vector 30" class="room"
            d="M317.09,411.4V484s62.14-.19,62.19,0,0-73,0-73Z" transform="translate(-0.29 -10.06)" />
    </g>
    <g id="_413" data-name="413">
        <path id="Vector_31" data-name="Vector 31" class="room" d="M381.25,411.43v72.3h89.69v-72Z"
            transform="translate(-0.29 -10.06)" />
    </g>
    <g id="_414" data-name="414">
        <path id="Vector_32" data-name="Vector 32" class="room" d="M520.14,411.6V484H627.3V411.37Z"
            transform="translate(-0.29 -10.06)" />
    </g>
    <g id="_415" data-name="415">
        <path id="Vector_33" data-name="Vector 33" class="room"
            d="M520.64,17.29H627.3V88.44H520.45Z" transform="translate(-0.29 -10.06)" />
    </g>
    <g id="_416" data-name="416">
        <path id="Vector_34" data-name="Vector 34" class="room"
            d="M381.12,108.52v93.8H503.93V109.08Z" transform="translate(-0.29 -10.06)" />
    </g>
    <g id="_417" data-name="417">
        <path id="Vector_35" data-name="Vector 35" class="room" d="M470.72,17.29H381.13V88.52H470Z"
            transform="translate(-0.29 -10.06)" />
    </g>
    <g id="_418" data-name="418">
        <path id="Vector_36" data-name="Vector 36" class="room" d="M348,17.86h31.25v70H348.06Z"
            transform="translate(-0.29 -10.06)" />
    </g>
    <g id="_419" data-name="419">
        <path id="Vector_37" data-name="Vector 37" class="room"
            d="M346.84,107.62h10.07v23.82H346.8Z" transform="translate(-0.29 -10.06)" />
    </g>
    <g id="_419a" data-name="419a">
        <path id="Vector_38" data-name="Vector 38" class="room"
            d="M359.2,108.59v22.17h18.88V108.31Z" transform="translate(-0.29 -10.06)" />
    </g>
    <g id="Bathroom-3" data-name="Bathroom">
        <path id="Vector_39" data-name="Vector 39" class="bathroom"
            d="M346.6,133.14v48.38h29.83V133.59Z" transform="translate(-0.29 -10.06)" />
    </g>
    <g id="_420" data-name="420">
        <path id="Vector_40" data-name="Vector 40" class="room" d="M333.8,108v9.34h10.75v-9.38Z"
            transform="translate(-0.29 -10.06)" />
    </g>
    <g id="_421" data-name="421">
        <path id="Vector_41" data-name="Vector 41" class="room"
            d="M315.67,119.39h15.76V107.86H315.55Z" transform="translate(-0.29 -10.06)" />
    </g>
    <g id="_422" data-name="422">
        <path id="Vector_42" data-name="Vector 42" class="room"
            d="M346.17,76.91V88.44H316.82V76.51Z" transform="translate(-0.29 -10.06)" />
    </g>
    <g id="_423" data-name="423">
        <path id="Vector_43" data-name="Vector 43" class="room" d="M316.22,121.37v9.95h29V121.17Z"
            transform="translate(-0.29 -10.06)" />
    </g>
    <g id="_424" data-name="424">
        <path id="Vector_44" data-name="Vector 44" class="room"
            d="M375.67,183.86v16.22H318.12V183Z" transform="translate(-0.29 -10.06)" />
    </g>
    <g id="Bathroom-4" data-name="Bathroom">
        <path id="Vector_45" data-name="Vector 45" class="bathroom"
            d="M316.7,134.27h26.82v11.45H332.26v2.43h8.14v33H317.25Z"
            transform="translate(-0.29 -10.06)" />
    </g>
    <g id="_425" data-name="425">
        <path id="Vector_46" data-name="Vector 46" class="room"
            d="M191.53,109v93.92H297.76V109.11Z" transform="translate(-0.29 -10.06)" />
    </g>
    <g id="_426" data-name="426">
        <path id="Vector_47" data-name="Vector 47" class="room" d="M345.63,18.73h-60V73.9h60.44Z"
            transform="translate(-0.29 -10.06)" />
    </g>
    <g id="_426a" data-name="426a">
        <path id="Vector_48" data-name="Vector 48" class="room" d="M286,77.42h29.35V87.74H285.67Z"
            transform="translate(-0.29 -10.06)" />
    </g>
    <g id="_427" data-name="427">
        <path id="Vector_49" data-name="Vector 49" class="room" d="M283.26,18.28h-46.1v43.2h46.22Z"
            transform="translate(-0.29 -10.06)" />
    </g>
    <g id="_428" data-name="428">
        <path id="Vector_50" data-name="Vector 50" class="room" d="M234.51,18.16h-44V88.67h44.24Z"
            transform="translate(-0.29 -10.06)" />
    </g>
    <g id="_429" data-name="429">
        <path id="Vector_51" data-name="Vector 51" class="room" d="M118.61,107.56v7H130v-7.24Z"
            transform="translate(-0.29 -10.06)" />
    </g>
    <g id="_430" data-name="430">
        <path id="Vector_52" data-name="Vector 52" class="room" d="M96.68,108.81v13H83.09V109.25Z"
            transform="translate(-0.29 -10.06)" />
    </g>
    <g id="_431" data-name="431">
        <path id="Vector_53" data-name="Vector 53" class="room"
            d="M4.13,49.19c.16.69,0,26.33,0,26.33H82V48.62Z" transform="translate(-0.29 -10.06)" />
    </g>
    <g id="_431a" data-name="431a">
        <path id="Vector_54" data-name="Vector 54" class="room" d="M3.5,46.57h45V14.29H3.38Z"
            transform="translate(-0.29 -10.06)" />
    </g>
    <g id="_431b" data-name="431b">
        <path id="Vector_55" data-name="Vector 55" class="room" d="M50.7,15.52H82.42V46.38H50.9Z"
            transform="translate(-0.29 -10.06)" />
    </g>
    <g id="lift_A_level_4" data-name="lift A level 4">
        <path id="Vector_56" data-name="Vector 56" class="lift"
            d="M97.78,344.32V362.5h18.69V344.75Z" transform="translate(-0.29 -10.06)" />
    </g>
    <g id="stairs_A_level_4" data-name="stairs A level 4">
        <path id="Vector_57" data-name="Vector 57" class="stair" d="M85.8,410.38h43.51v73H85.71Z"
            transform="translate(-0.29 -10.06)" />
    </g>
    <g id="stairs_B_level_4" data-name="stairs B level 4">
        <path id="Vector_58" data-name="Vector 58" class="stair" d="M473.52,411V482.8h25.67v-72Z"
            transform="translate(-0.29 -10.06)" />
    </g>
    <g id="lift_B_level_4" data-name="lift B level 4">
        <path id="Vector_59" data-name="Vector 59" class="lift"
            d="M360.22,366.75V380.2h17.12V367.1Z" transform="translate(-0.29 -10.06)" />
    </g>
    <g id="stairs_C_level_4" data-name="stairs C level 4">
        <path id="Vector_60" data-name="Vector 60" class="stair" d="M474.12,212h72V288.1H474.25Z"
            transform="translate(-0.29 -10.06)" />
    </g>
    <g id="stairs_D_level_4" data-name="stairs D level 4">
        <path id="Vector_61" data-name="Vector 61" class="stair"
            d="M472.25,17.58H498.7V88.39H472.21Z" transform="translate(-0.29 -10.06)" />
    </g>
    <g id="stairs_E_level_4" data-name="stairs E level 4">
        <path id="Vector_62" data-name="Vector 62" class="stair" d="M86.61,16.08h41.77V89.63H86.2Z"
            transform="translate(-0.29 -10.06)" />
    </g>
    <g id="lift_C_floor_4" data-name="lift C floor 4">
        <path id="Vector_63" data-name="Vector 63" class="lift" d="M99.65,128.31h15.92V154H99.69Z"
            transform="translate(-0.29 -10.06)" />
    </g>
</svg>
